X:49
T: Here's a Health to my True Love
N: HA049
O: Europa, Mitteleuropa, Deutschland
M: 3/4
L: 1/16
K: B
F4 | B4(3B2c2d2c2B2 | =A3GF4d4 | B2=A2G2F2E2FG | F8
d2c2 | d4d2efe2d2 | c3B=a4d2c2 | B3cd4c4 | B8
B2c2 | d4(3d2e2f2e2d2 | c4(3c2d2e2d2c2 | B2A2B2c2B2cd | F8
d2c2 | B2A2G2F2E2D2 | E6D2E2FG | F4D4c4 | B8

@@@ Tune index: 7274
